X:1
T:O Church of God, Arise!
T:O Church of God, Arise!
T:John Robson Sweney (1837-1899)
T:Frances Jane (Fanny) Crosby (1820-1915)
T:Public Domain Courtesy of the Cyber Hymnal™
T:Public Domain Courtesy of the Cyber Hymnal™
T:Public Domain Courtesy of the Cyber Hymnal™
C:John Robson Sweney (1837-1899)
Z:Public Domain
Z:Courtesy of the Cyber Hymnal™
%%score ( 1 2 ) ( 3 4 )
L:1/8
Q:1/4=112
M:4/4
K:A
V:1 treble 
V:2 treble 
V:3 bass 
V:4 bass 
V:1
 [CE]2 | [CA]>[CA] [CA]>[CA] [CA]3 [DA] | [Ec]>[Ec] [Ec]>[Ec] [Ec]3 [Ec] | %3
w: 1.~O|Church of God, a- rise! Reach|out thy help- ing hand, And|
w: 2.~O|Church of God, a- rise! Thy|bor- ders wide ex- tend, And|
w: 3.~O|Church of God, a- rise! The|grand old chor- al strain Of|
 [Ed]>[Ed] [Ed]>[Ed] [Ec]>[EB] [EA]>[Ec] | [^DB]>[DA] [DG]>[DA] [EB]2 E2 | %5
w: like a trum- pet let thy voice Go|forth to ev- ’ry land; Lay|
w: o’er the earth’s re- mot- est bounds Thy|her- alds quick- ly send; Thine|
w: peace on earth, good will to man, That|rang on Ju- dah’s plain, O’er|
 [CE]>[B,D] [A,C]>[CE] [CA]3 A | A>E [EA]>[EB] [Ec]3 [Ec] | %7
w: not thine ar- mor down, Nor|cease by day or night, To|
w: ar- mies now are great, But|great- er they must be, For|
w: all the world shall ring, And|e- cho far and wide, And|
 [=Ge]>[Ge] [Ge]>[Ge] [Fe]>[Fd] [FA]>[=FB] | [Ec]>[Ec] [Ec]>[DB] !fermata![CA]2 ||"^Refrain" E>C | %10
w: lift the sword of Gos- pel truth, And|wield it for the right.||
w: ev- ’ry na- tion, ev- ’ry clime Shall|yet re- joice in thee.|Then a-|
w: then the King, thy Lord, shall come, And|claim His faith- ful bride.||
 (z2 E2) A>E x2 | z2 A2 [Ec]2 x2 | [Fd]2 [Fd]2 [FA]2 [=FB]2 | [Ec]6 c>d | (z2 G>)B x6 | %15
w: |||||
w: * rise in|* thy|glo- ry, O Church|of God, a-|* rise!|
w: |||||
 (z2 F2) A2 x4 | A4- A3/2 z/ A<GA/ | B6 E2 | [CA]>[CA] [CA]>[CA] [CA]2 [CA]>[DB] | %19
w: ||||
w: * ’Tis|the * dawn of the|mor- row|that greets thy wait- ing eyes But|
w: ||||
 [Ec]>[Fd] [Ec]>[DB] [CA]2 [EA]2 | [EB]>[EB] [EB]>[EB] [EB]2 [EB]>[Ec] | %21
w: ||
w: cloud and mist and sha- dow|must all be rolled a- way. But|
w: ||
 [Ed]>[Ee] [Ed]>[Ec] [EB]>B c>B | (z3/2 [EA]3/2)B>A x3 | (z3/2 [DF]2) x7 | %24
w: |||
w: cloud and mist and sha- dow must all|* be rolled||
w: |||
 [CE]2 [EA]2 [DA]2 [DG]2 | [CA]6 |] %26
w: ||
w: a- way. Be- fore|the|
w: ||
V:2
 x2 | x8 | x8 | x8 | x6 (E=D) | x7 A | A>E x6 | x8 | x6 || x2 | A6 E>E | c4 (E>E E)E | x8 | x8 | %14
 (c6 ^E>E E2) | (A4 F>F) (CC) (C>C) | (^D2 D>D DD D2) x/ | (E>EE>E E2) E2 | x8 | x8 | x8 | x8 | %22
 (A4- E/ E3/2 E/) G/ x | (F6 D<DD/ D2) | x8 | x6 |] %26
V:3
 [A,,A,]2 | [A,,E,]>[A,,E,] [A,,E,]>[A,,E,] [A,,E,]3 [A,,C] | A,>A, A,>A, A,3 A, | %3
w: ~|~ ~ ~ ~ ~ ~|~ ~ ~ ~ ~ ~|
 [G,B,]>[G,B,] [G,B,]>[G,B,] A,>[A,D] [A,C]>[A,,A,] | %4
w: ~ ~ ~ ~ ~ ~ ~ ~|
 [B,,F,]>[B,,F,] [B,,F,]>[B,,F,] G,2 [C,A,][B,,G,] | [A,,A,]>[A,,E,] [A,,E,]>[A,,A,] [A,,E,]3 A, | %6
w: ~ ~ ~ ~ ~ ~ ~|~ ~ ~ ~ ~ ~|
 A,>E, [C,A,]>[E,G,] A,3 A, | [C,A,]>[C,A,] [C,A,]>[C,A,] [D,A,]>[D,A,] [D,A,]>[D,A,] | %8
w: ~ ~ ~ ~ ~ ~|~ ~ ~ ~ ~ ~ ~ ~|
 [E,A,]>[E,A,] [E,A,]>[E,G,] !fermata![A,,A,]2 || z2 | z2 [A,,C]>[A,,C] [A,,C]2 z2 | %11
w: ~ ~ ~ ~ ~||~ Then a-|
 z2 [A,,A,]>[A,,A,] [A,,C][A,,C] [A,,A,]2 | [D,A,]2 [E,A,]2 [E,D]2 [D,A,]2 | %13
w: rise in thy glo- ry,|O Church, O Church|
 [A,,A,]3 [A,,A,] [A,,A,]2 z2 | z2 [C,G,]>[C,G,] [C,G,]2 z2 x2 | %15
w: of God, a-|rise! ’Tis the|
 z2 [F,C]>[F,C] [F,A,][F,A,] [F,A,]>[F,A,] x2 | %16
w: dawn of the mor- row, ’tis|
 [B,,F,]2 [B,,F,]>[B,,F,] [B,,F,][B,,F,] [B,,F,]2 x/ | [E,G,]>[E,G,] [E,G,]>[E,G,] [E,G,]2 E,2 | %18
w: the dawn of the mor- row|that greets thy wait- ing eyes|
 [A,,E,]>[A,,E,] [A,,E,]>[A,,E,] [A,,E,]2 [A,,E,]>[A,,E,] | %19
w: ~ ~ ~ ~ ~ ~ ~|
 [A,,A,]>[A,,A,] [A,,A,]>[A,,A,] [A,,E,]2 [C,A,]2 | %20
w: ~ ~ ~ ~ ~ ~|
 [E,G,]>[E,G,] [E,G,]>[E,G,] [E,G,]2 [E,G,]>[E,A,] | [E,B,]>[E,C] [E,B,]>[E,A,] [E,G,]3/2 z/ z2 | %22
w: ~ ~ ~ ~ ~ ~ ~|~ ~ ~ ~ ~|
 z3/2 [A,,C]/ [A,,C]>[A,,C] [A,,C] z z2 | z3/2 [D,A,]/ [D,A,]>[D,A,] [D,A,]2 [D,A,]2 x5/2 | %24
w: ~ Be- fore the|world will ush- er in|
 [E,A,]2 [E,C]2 [E,B,]2 E,2 | [A,,E,]6 |] %26
w: ||
V:4
 x2 | x8 | A,>A, A,>A, A,3 A, | x4 A,3/2 x5/2 | x4 E,F, x2 | x7 A, | A,>E, x3/2 A,3 A, x/ | x8 | %8
 x6 || x2 | x8 | x8 | x8 | x8 | x10 | x10 | x17/2 | x6 E,2 | x8 | x8 | x8 | x8 | x8 | x21/2 | %24
 x6 E,2 | x6 |] %26

